frontend/public/svg/emojis/heart-eyes-emoji.svg

<svg width="160" height="156" viewBox="0 0 160 156" fill="none" xmlns="http://www.w3.org/2000/svg">
<path d="M90.8112 79.4565C95.8654 79.1375 100.918 78.7934 105.975 78.5151C107.312 78.3936 108.658 78.4355 109.985 78.6398C117.163 80.032 118.953 82.3607 118.653 89.6773C118.088 103.497 109.105 115.779 95.9006 119.709C81.4611 124.006 67.5464 122.524 54.9556 113.758C45.5791 107.229 42.0539 96.8584 44.9175 85.7918C45.4891 83.5857 46.496 82.4649 49.0529 82.2895C62.9703 81.3348 76.8728 80.1566 90.78 79.0556C90.7916 79.191 90.8017 79.3237 90.8112 79.4565ZM63.1463 111.399C64.6943 106.145 68.3523 103.625 72.9467 102.573C83.517 100.153 93.769 99.9239 102.857 108.99L110.205 97.0081L109.372 96.0256L50.6279 98.7044C53.3528 104.984 57.4867 108.701 63.1463 111.399ZM49.8377 93.4449L110.906 89.6183C110.635 87.6735 110.461 86.3992 110.245 84.833L49.8377 87.4149V93.4449ZM96.6502 112.283C90.9703 106.442 84.5293 107.001 78.0673 108.065C74.4967 108.65 70.8116 109.337 68.98 113.664C78.4309 116.091 87.2765 116.052 96.6502 112.283Z" fill="black"/>
<path d="M111.625 45.2863C115.599 41.3446 119.703 40.3161 123.295 42.2271C126.806 44.0926 129.254 50.3962 128.043 55.0576C126.603 60.6055 123.609 65.3401 118.58 68.0954C116.324 69.3312 113.09 69.6299 110.487 69.2053C105.201 68.3295 100.411 65.5657 97.0073 61.4269C93.4394 57.2022 93.6073 50.7097 97.1529 46.4457C100.6 42.2995 104.839 41.9398 111.625 45.2863ZM100.673 54.7258C100.81 55.4571 101.064 56.1615 101.425 56.8122C103.984 60.4356 107.863 61.9353 111.931 63.0669C112.092 63.1054 112.26 63.1098 112.423 63.0797C112.587 63.0497 112.742 62.9857 112.879 62.8921C116.448 59.7962 120.433 56.9035 121.368 51.9224C121.645 50.4455 120.52 48.7053 120.037 47.0863C118.469 47.6856 116.341 47.8393 115.445 48.9701C113.176 51.8371 111.242 52.2928 108.048 50.2295C104.094 47.6719 100.626 49.7678 100.673 54.7258Z" fill="black"/>
<path d="M50.0922 66.6174C46.4221 66.2754 40.4578 63.1003 36.4429 56.7859C35.1338 54.718 34.562 52.2683 34.8201 49.8345C35.0782 47.4008 36.1512 45.1256 37.865 43.3783C41.0299 40.1463 45.344 39.9716 50.2967 42.538C50.899 42.7881 51.5451 42.9153 52.1973 42.9121C52.8494 42.909 53.4943 42.7756 54.0941 42.5197C60.309 39.6079 65.9286 42.2488 67.5308 48.9729C69.68 57.9769 61.9362 67.0779 50.0922 66.6174ZM54.6555 61.3356C56.968 58.2472 59.4219 55.5122 61.1432 52.3776C61.7527 51.2732 61.0308 48.717 60.0266 47.7148C59.3847 47.0736 56.6206 47.536 55.6611 48.4244C52.6139 51.2413 50.3854 50.894 47.7208 47.9058C46.9083 46.9977 44.0886 46.5081 43.4419 47.1298C42.2982 48.2301 41.3678 50.5155 41.724 51.9625C42.1513 53.7028 43.7467 55.5034 45.3217 56.5387C48.0899 58.3582 51.2271 59.6171 54.6555 61.3343V61.3356Z" fill="black"/>
<path d="M3.6377 56.8154C-3.37212 84.3665 2.76622 108.671 21.8949 129.067C22.3933 129.594 22.9005 130.12 23.4084 130.624C33.6834 140.899 46.4822 147.244 56.6238 151.659C60.9765 153.559 83.3102 155.868 89.353 154.968C125.264 149.605 148.896 129.351 157.127 95.4649C158.699 88.8272 159.481 82.0272 159.459 75.206C159.497 59.1373 152.731 40.4562 138.779 26.465C137.342 25.2779 135.911 24.0468 134.527 22.8551C131.525 20.2738 128.422 17.6026 125.175 15.3233C100.378 -2.12951 74.6129 -2.22769 48.5989 7.02823C25.0457 15.4032 9.92027 32.1564 3.6377 56.8154ZM48.6991 15.2785C71.5244 5.793 94.4262 4.1191 116.763 18.3256C120.847 20.9259 131.736 29.7268 133.449 31.0479L133.56 31.1299L133.651 31.2301C142.365 40.4711 152.344 57.368 152.123 74.7375C152.051 82.1647 151.045 89.5533 149.131 96.7299C143.457 117.352 129.892 132.382 107.66 142.663C85.0606 153.484 52.6496 142.544 44.0261 136.851C34.4945 130.335 26.1545 122.228 19.3705 112.885C8.73121 97.8214 6.34425 76.1697 12.0573 56.3753C14.7333 47.2358 19.4097 38.8062 25.7474 31.698C32.085 24.5898 39.9251 18.981 48.6991 15.2785Z" fill="black"/>
</svg>

<svg xmlns="http://www.w3.org/2000/svg" width="160" height="156" fill="none" viewBox="0 0 160 156"><path fill="#000" d="M90.811 79.457c5.054-.32 10.107-.664 15.164-.942a16.5 16.5 0 0 1 4.01.125c7.178 1.392 8.968 3.72 8.668 11.037-.565 13.82-9.548 26.102-22.752 30.032-14.44 4.297-28.355 2.815-40.945-5.951-9.377-6.529-12.902-16.9-10.039-27.966.572-2.206 1.579-3.327 4.136-3.502 13.917-.955 27.82-2.133 41.727-3.234q.018.202.031.4m-27.665 31.942c1.548-5.254 5.206-7.774 9.8-8.826 10.571-2.42 20.823-2.65 29.911 6.417l7.348-11.982-.833-.982-58.744 2.678c2.725 6.28 6.859 9.997 12.518 12.695M49.838 93.445l61.068-3.827c-.271-1.944-.445-3.219-.661-4.785l-60.407 2.582zm46.812 18.838c-5.68-5.841-12.12-5.282-18.583-4.218-3.57.585-7.255 1.272-9.087 5.599 9.45 2.427 18.296 2.388 27.67-1.381m14.975-66.997c3.974-3.941 8.078-4.97 11.67-3.059 3.511 1.866 5.959 8.17 4.748 12.83-1.44 5.548-4.434 10.283-9.463 13.038-2.256 1.236-5.49 1.535-8.093 1.11a22.14 22.14 0 0 1-13.48-7.778c-3.568-4.225-3.4-10.717.146-14.981 3.447-4.146 7.686-4.506 14.472-1.16m-10.952 9.44c.137.731.391 1.435.752 2.086 2.559 3.624 6.438 5.123 10.506 6.255a1.2 1.2 0 0 0 .948-.175c3.569-3.096 7.554-5.989 8.489-10.97.277-1.476-.848-3.217-1.331-4.836-1.568.6-3.696.753-4.592 1.884-2.269 2.867-4.203 3.323-7.397 1.26-3.954-2.558-7.422-.462-7.375 4.496M50.092 66.617c-3.67-.342-9.634-3.517-13.65-9.831a10.856 10.856 0 0 1 1.423-13.408c3.165-3.232 7.479-3.406 12.432-.84a4.9 4.9 0 0 0 3.797-.018c6.215-2.912 11.835-.271 13.437 6.453 2.149 9.004-5.595 18.105-17.439 17.644m4.564-5.281c2.312-3.089 4.766-5.824 6.487-8.958.61-1.105-.112-3.661-1.116-4.663-.642-.641-3.406-.179-4.366.71-3.047 2.816-5.276 2.469-7.94-.52-.813-.907-3.632-1.397-4.28-.775-1.143 1.1-2.073 3.386-1.717 4.832.427 1.74 2.023 3.541 3.598 4.577 2.768 1.82 5.905 3.078 9.334 4.795z"/><path fill="#000" d="M3.638 56.815c-7.01 27.552-.872 51.856 18.257 72.252a69 69 0 0 0 1.513 1.557c10.275 10.275 23.074 16.62 33.216 21.035 4.352 1.9 26.686 4.209 32.729 3.309 35.911-5.363 59.543-25.617 67.774-59.503a86.7 86.7 0 0 0 2.332-20.259c.038-16.069-6.728-34.75-20.68-48.741a274 274 0 0 1-4.252-3.61c-3.002-2.581-6.105-5.252-9.352-7.532C100.378-2.13 74.613-2.227 48.599 7.028 25.046 15.403 9.92 32.156 3.638 56.815M48.699 15.28c22.825-9.486 45.727-11.16 68.064 3.047 4.084 2.6 14.973 11.4 16.686 12.722l.111.082.091.1c8.714 9.241 18.693 26.138 18.472 43.507a88.7 88.7 0 0 1-2.992 21.993c-5.674 20.622-19.239 35.652-41.471 45.933-22.6 10.821-55.01-.119-63.634-5.812a100.7 100.7 0 0 1-24.656-23.966C8.732 97.821 6.345 76.17 12.058 56.375A64.18 64.18 0 0 1 48.7 15.28"/></svg>
